bi-connector.svg

<?xml version="1.0" encoding="UTF-8" standalone="no"?>
<svg
   xmlns:dc="http://purl.org/dc/elements/1.1/"
   xmlns:cc="http://creativecommons.org/ns#"
   xmlns:rdf="http://www.w3.org/1999/02/22-rdf-syntax-ns#"
   xmlns:svg="http://www.w3.org/2000/svg"
   xmlns="http://www.w3.org/2000/svg"
   xmlns:sodipodi="http://sodipodi.sourceforge.net/DTD/sodipodi-0.dtd"
   xmlns:inkscape="http://www.inkscape.org/namespaces/inkscape"
   version="1.1"
   x="0"
   y="0"
   width="476.82932"
   height="112.331"
   viewBox="0 0 476.82932 112.331"
   id="svg2"
   inkscape:version="0.91 r13725"
   sodipodi:docname="bi-connector.svg">
  <metadata
     id="metadata146">
    <rdf:RDF>
      <cc:Work
         rdf:about="">
        <dc:format>image/svg+xml</dc:format>
        <dc:type
           rdf:resource="http://purl.org/dc/dcmitype/StillImage" />
        <dc:title></dc:title>
      </cc:Work>
    </rdf:RDF>
  </metadata>
  <sodipodi:namedview
     pagecolor="#ffffff"
     bordercolor="#666666"
     borderopacity="1"
     objecttolerance="10"
     gridtolerance="10"
     guidetolerance="10"
     inkscape:pageopacity="0"
     inkscape:pageshadow="2"
     inkscape:window-width="2495"
     inkscape:window-height="1416"
     id="namedview144"
     showgrid="false"
     inkscape:zoom="2.6648363"
     inkscape:cx="293.83345"
     inkscape:cy="12.683756"
     inkscape:window-x="65"
     inkscape:window-y="24"
     inkscape:window-maximized="1"
     inkscape:current-layer="svg2"
     fit-margin-top="0"
     fit-margin-left="0"
     fit-margin-right="0"
     fit-margin-bottom="0" />
  <defs
     id="defs4">
    <linearGradient
       id="Gradient_1"
       gradientUnits="userSpaceOnUse"
       x1="231"
       y1="68"
       x2="231"
       y2="68"
       gradientTransform="translate(-2,-25.888)">
      <stop
         offset="0.324"
         stop-color="#FFFFFF"
         id="stop7" />
      <stop
         offset="1"
         stop-color="#000000"
         id="stop9" />
    </linearGradient>
  </defs>
  <path
     style="fill:#89c263"
     inkscape:connector-curvature="0"
     id="path12"
     d="m 208.813,0 73.714,0 c 6.628,0 12,5.373 12,12 l 0,55.951 c 0,6.627 -5.372,12 -12,12 l -73.714,0 c -6.628,0 -12,-5.373 -12,-12 l 0,-55.951 c 0,-6.627 5.372,-12 12,-12 z" />
  <g
     id="g14"
     transform="translate(-2,-25.888)">
    <path
       style="fill:#ffffff"
       inkscape:connector-curvature="0"
       id="path16"
       d="m 378.586,42.877 99.233,0 0,83.734 -99.233,0 0,-83.734 z" />
    <path
       sodipodi:nodetypes="ccccc"
       style="fill-opacity:0;stroke:#6cb33e;stroke-width:2"
       inkscape:connector-curvature="0"
       id="path18"
       d="m 378.586,127.67239 0,-76.159559 0,-7.756868 99.233,0.182426 0,83.734001" />
  </g>
  <g
     id="g20"
     transform="translate(-2,-25.888)">
    <text
       id="tspan4201"
       transform="translate(247.67,65.863)">
      <tspan
         style="font-size:15px;font-family:GillSans;fill:#ffffff"
         id="tspan23"
         font-size="15"
         y="-12"
         x="-34.569">Business</tspan>
      <tspan
         style="font-size:15px;font-family:GillSans;fill:#ffffff"
         id="tspan25"
         font-size="15"
         y="5"
         x="-34.569">Intelligence</tspan>
      <tspan
         style="font-size:15px;font-family:GillSans;fill:#ffffff"
         id="tspan27"
         font-size="15"
         y="22"
         x="-34.569">Connector</tspan>
    </text>
  </g>
  <g
     id="g29"
     transform="translate(-2,-25.888)">
    <g
       id="path17810">
      <path
         style="fill:#358ec4"
         inkscape:connector-curvature="0"
         id="path32"
         d="M 130.85,58.881 192.791,42.284" />
      <path
         style="fill-opacity:0;stroke:#358ec4;stroke-width:3.60599995;stroke-miterlimit:10"
         inkscape:connector-curvature="0"
         id="path34"
         stroke-miterlimit="10"
         d="M 130.85,58.881 192.791,42.284" />
    </g>
    <g
       id="path17832">
      <path
         style="fill:#358ec4"
         inkscape:connector-curvature="0"
         id="path37"
         d="M 124.825,60.495 135.009,50.3 138.742,64.232 124.825,60.495 Z" />
      <path
         style="fill-opacity:0;stroke:#358ec4;stroke-width:0.40000001"
         inkscape:connector-curvature="0"
         id="path39"
         d="M 124.825,60.495 135.009,50.3 138.742,64.232 124.825,60.495 Z" />
    </g>
  </g>
  <text
     id="tspan17836"
     transform="matrix(0.96588555,-0.25896931,0.25896931,0.96588555,0,0)"
     x="143.62277"
     y="53.669807"
     style="font-size:12.00142193px">
    <tspan
       style="font-size:15.00177765px;font-family:GillSans;fill:#2a86c0"
       id="tspan42"
       font-size="15"
       y="58.670403"
       x="120.62405">schema</tspan>
  </text>
  <g
     id="g44"
     transform="translate(-2,-25.888)">
    <g
       id="path17810-9">
      <path
         style="fill:#6cb33f"
         inkscape:connector-curvature="0"
         id="path47"
         d="M 124.825,86.452 186.766,69.855" />
      <path
         style="fill-opacity:0;stroke:#6cb33f;stroke-width:3.60599995;stroke-linecap:square;stroke-miterlimit:10"
         inkscape:connector-curvature="0"
         id="path49"
         stroke-miterlimit="10"
         d="M 124.825,86.452 186.766,69.855" />
    </g>
    <g
       id="path17685">
      <path
         style="fill:#6cb33f"
         inkscape:connector-curvature="0"
         id="path52"
         d="m 192.791,68.24 -10.184,10.195 -3.733,-13.931 13.917,3.736 z" />
      <path
         style="fill-opacity:0;stroke:#6cb33f;stroke-width:0.40000001;stroke-linecap:square;stroke-miterlimit:10"
         inkscape:connector-curvature="0"
         id="path54"
         stroke-miterlimit="10"
         d="m 192.791,68.24 -10.184,10.195 -3.733,-13.931 13.917,3.736 z" />
    </g>
  </g>
  <text
     id="tspan19197"
     transform="matrix(0.96588555,-0.25896931,0.25896931,0.96588555,0,0)"
     x="137.31895"
     y="77.181396"
     style="font-size:12.00142193px">
    <tspan
       style="font-size:15.00177765px;font-family:GillSans;fill:#6cb33f"
       id="tspan57"
       font-size="15"
       y="82.181984"
       x="114.63126">queries</tspan>
  </text>
  <g
     id="g59"
     transform="translate(-2,-25.888)">
    <g
       id="path17810-2">
      <path
         style="fill:#358ec4"
         inkscape:connector-curvature="0"
         id="path62"
         d="M 130.85,108.418 192.791,91.821" />
      <path
         style="fill-opacity:0;stroke:#358ec4;stroke-width:3.60599995;stroke-linecap:square;stroke-miterlimit:10"
         inkscape:connector-curvature="0"
         id="path64"
         stroke-miterlimit="10"
         d="M 130.85,108.418 192.791,91.821" />
    </g>
    <g
       id="path17832-7">
      <path
         style="fill:#358ec4"
         inkscape:connector-curvature="0"
         id="path67"
         d="m 124.825,110.032 10.184,-10.194 3.733,13.931 -13.917,-3.737 z" />
      <path
         style="fill-opacity:0;stroke:#358ec4;stroke-width:0.40000001;stroke-linecap:square;stroke-miterlimit:10"
         inkscape:connector-curvature="0"
         id="path69"
         stroke-miterlimit="10"
         d="m 124.825,110.032 10.184,-10.194 3.733,13.931 -13.917,-3.737 z" />
    </g>
  </g>
  <text
     id="tspan17836-46"
     transform="matrix(0.96588555,-0.25896931,0.25896931,0.96588555,0,0)"
     x="131.02625"
     y="100.65145"
     style="font-size:12.00142193px">
    <tspan
       style="font-size:15.00177765px;font-family:GillSans;fill:#2a86c0"
       id="tspan72"
       font-size="15"
       y="105.65204"
       x="100.2226">responses</tspan>
  </text>
  <g
     id="g74"
     transform="translate(-2,-25.888)">
    <g
       id="path17810-9-1">
      <path
         style="fill:#6cb33f"
         inkscape:connector-curvature="0"
         id="path77"
         d="m 303.295,60.334 61.941,16.597" />
      <path
         style="fill-opacity:0;stroke:#6cb33f;stroke-width:3.60599995;stroke-linecap:square;stroke-miterlimit:10"
         inkscape:connector-curvature="0"
         id="path79"
         stroke-miterlimit="10"
         d="m 303.295,60.334 61.941,16.597" />
    </g>
    <g
       id="path17685-5">
      <path
         style="fill:#6cb33f"
         inkscape:connector-curvature="0"
         id="path82"
         d="m 371.261,78.546 -13.917,3.736 3.733,-13.931 10.184,10.195 z" />
      <path
         style="fill-opacity:0;stroke:#6cb33f;stroke-width:0.40000001;stroke-linecap:square;stroke-miterlimit:10"
         inkscape:connector-curvature="0"
         id="path84"
         stroke-miterlimit="10"
         d="m 371.261,78.546 -13.917,3.736 3.733,-13.931 10.184,10.195 z" />
    </g>
  </g>
  <text
     id="tspan19197-8"
     transform="matrix(0.96588555,0.25896931,-0.25896931,0.96588555,0,0)"
     x="336.28259"
     y="-58.109234"
     style="font-size:12.00142193px">
    <tspan
       style="font-size:15.00177765px;font-family:GillSans;fill:#6cb33f"
       id="tspan87"
       font-size="15"
       y="-53.108643"
       x="313.59491">queries</tspan>
  </text>
  <g
     id="g89"
     transform="translate(-2,-25.888)">
    <g
       id="path17810-2-9">
      <path
         style="fill:#358ec4"
         inkscape:connector-curvature="0"
         id="path92"
         d="m 307.32,92.246 61.941,16.597" />
      <path
         style="fill-opacity:0;stroke:#358ec4;stroke-width:3.60599995;stroke-linecap:square;stroke-miterlimit:10"
         inkscape:connector-curvature="0"
         id="path94"
         stroke-miterlimit="10"
         d="m 307.32,92.246 61.941,16.597" />
    </g>
    <g
       id="path17832-7-3">
      <path
         style="fill:#358ec4"
         inkscape:connector-curvature="0"
         id="path97"
         d="m 301.295,90.631 13.917,-3.736 -3.733,13.931 -10.184,-10.195 z" />
      <path
         style="fill-opacity:0;stroke:#358ec4;stroke-width:0.40000001;stroke-linecap:square;stroke-miterlimit:10"
         inkscape:connector-curvature="0"
         id="path99"
         stroke-miterlimit="10"
         d="m 301.295,90.631 13.917,-3.736 -3.733,13.931 -10.184,-10.195 z" />
    </g>
  </g>
  <text
     id="tspan17836-46-6"
     transform="matrix(0.96588555,0.25896931,-0.25896931,0.96588555,0,0)"
     x="341.64313"
     y="-28.149391"
     style="font-size:12.00142193px">
    <tspan
       style="font-size:15.00177765px;font-family:GillSans;fill:#2a86c0"
       id="tspan102"
       font-size="15"
       y="-23.148798"
       x="310.83948">responses</tspan>
  </text>
  <g
     id="g104"
     transform="translate(-2,-25.888)">
    <path
       style="fill:#ffffff"
       inkscape:connector-curvature="0"
       id="path106"
       d="m 17.215,52.283 82.984,0 c 7.851,0 14.215,7.368 14.215,16.456 l 0,52.023 c 0,9.089 -6.364,16.457 -14.215,16.457 l -82.984,0 C 9.364,137.219 3,129.851 3,120.762 L 3,68.739 C 3,59.651 9.364,52.283 17.215,52.283 Z" />
    <path
       style="fill-opacity:0;stroke:#358ec4;stroke-width:2"
       inkscape:connector-curvature="0"
       id="path108"
       d="m 17.215,52.283 82.984,0 c 7.851,0 14.215,7.368 14.215,16.456 l 0,52.023 c 0,9.089 -6.364,16.457 -14.215,16.457 l -82.984,0 C 9.364,137.219 3,129.851 3,120.762 L 3,68.739 C 3,59.651 9.364,52.283 17.215,52.283 Z" />
  </g>
  <text
     id="text110"
     x="56.707001"
     y="68.862999">
    <tspan
       style="font-size:18px;font-family:GillSans;fill:#4b4b4b"
       id="tspan112"
       font-size="18"
       y="54.003002"
       x="13.180999">Business</tspan>
    <tspan
       style="font-size:18px;font-family:GillSans;fill:#4b4b4b"
       id="tspan114"
       font-size="18"
       y="75.002998"
       x="13.180999">Intelligence</tspan>
    <tspan
       style="font-size:18px;font-family:GillSans;fill:#4b4b4b"
       id="tspan116"
       font-size="18"
       y="96.002998"
       x="13.180999">Tool</tspan>
  </text>
  <text
     id="text118"
     x="432.293"
     y="68.862999">
    <tspan
       style="font-size:18px;font-family:GillSans;fill:#4b4b4b"
       id="tspan120"
       font-size="18"
       y="54.003002"
       x="388.767">MongoDB</tspan>
  </text>
  <g
     id="g122"
     transform="translate(-2,-25.888)">
    <path
       style="fill:#ffffff"
       inkscape:connector-curvature="0"
       id="path124"
       d="m 428.202,48.471 c -27.402,0 -49.616,-2.504 -49.616,-5.594 0,-3.089 22.214,-5.593 49.616,-5.593 27.403,0 49.617,2.504 49.617,5.593 0,3.09 -22.214,5.594 -49.617,5.594 z" />
    <path
       style="fill-opacity:0;stroke:#6cb33e;stroke-width:2"
       inkscape:connector-curvature="0"
       id="path126"
       d="m 428.202,48.471 c -27.402,0 -49.616,-2.504 -49.616,-5.594 0,-3.089 22.214,-5.593 49.616,-5.593 27.403,0 49.617,2.504 49.617,5.593 0,3.09 -22.214,5.594 -49.617,5.594 z" />
  </g>
  <g
     id="g128"
     transform="translate(-2,-25.888)" />
  <path
     style="fill:url(#Gradient_1)"
     inkscape:connector-curvature="0"
     id="path142"
     d="m 229,42.112 0,0" />
  <path
     sodipodi:nodetypes="cssssssc"
     inkscape:connector-curvature="0"
     id="path3561"
     d="m 390.9545,95.72014 c 1.83445,-0.18978 6.39748,-0.54085 9.45377,-0.72734 16.99028,-1.03674 38.23153,-0.97703 54.93686,0.15444 3.71865,0.25187 9.34072,0.73049 9.17583,0.78545 -0.0678,0.0227 -2.3736,-0.10912 -3.94865,-0.19988 -19.89727,-1.14478 -51.82421,-0.90077 -70.68462,0.27029 -2.19528,0.13628 -2.7634,0.10304 -1.15547,-0.059 z"
     style="fill:#6cb33e;fill-opacity:1" />
  <path
     sodipodi:open="true"
     sodipodi:cx="426.20453"
     sodipodi:cy="101.66438"
     sodipodi:rx="49.622105"
     sodipodi:ry="4.6823063"
     sodipodi:end="3.1415927"
     sodipodi:start="0"
     sodipodi:type="arc"
     d="m 475.82663,101.66438 a 49.622105,4.6823063 0 0 1 -24.81105,4.055 49.622105,4.6823063 0 0 1 -49.6221,0 49.622105,4.6823063 0 0 1 -24.81106,-4.055"
     id="path4365"
     style="fill:none;fill-opacity:1;stroke:#6cb33e;stroke-width:2.00538588;stroke-miterlimit:4;stroke-dasharray:none;stroke-opacity:1" />
</svg>

<?xml version="1.0" encoding="UTF-8"?>
<!DOCTYPE svg PUBLIC "-//W3C//DTD SVG 1.1//EN" "http://www.w3.org/Graphics/SVG/1.1/DTD/svg11.dtd">
<svg version="1.1" xmlns="http://www.w3.org/2000/svg" xmlns:xlink="http://www.w3.org/1999/xlink" x="0" y="0" width="495.34" height="141.167" viewBox="0, 0, 495.34, 141.167">
  <defs>
    <linearGradient id="Gradient_1" gradientUnits="userSpaceOnUse" x1="231" y1="68" x2="231" y2="68">
      <stop offset="0.324" stop-color="#FFFFFF"/>
      <stop offset="1" stop-color="#000000"/>
    </linearGradient>
  </defs>
  <g id="g7">
    <path d="M210.813,25.888 L284.527,25.888 C291.155,25.888 296.527,31.261 296.527,37.888 L296.527,93.839 C296.527,100.466 291.155,105.839 284.527,105.839 L210.813,105.839 C204.185,105.839 198.813,100.466 198.813,93.839 L198.813,37.888 C198.813,31.261 204.185,25.888 210.813,25.888 z" fill="#89C263"/>
    <g>
      <path d="M378.586,42.877 L477.819,42.877 L477.819,126.611 L378.586,126.611 L378.586,42.877 z" fill="#FFFFFF"/>
      <path d="M378.586,42.877 L477.819,42.877 L477.819,126.611 L378.586,126.611 L378.586,42.877 z" fill-opacity="0" stroke="#6CB33E" stroke-width="2"/>
    </g>
    <g>
      <text transform="matrix(1, 0, 0, 1, 247.67, 65.863)" id="tspan4201">
        <tspan x="-34.569" y="-12" font-family="GillSans" font-size="15" fill="#FFFFFF">Business</tspan>
        <tspan x="-34.569" y="5" font-family="GillSans" font-size="15" fill="#FFFFFF">Intelligence</tspan>
        <tspan x="-34.569" y="22" font-family="GillSans" font-size="15" fill="#FFFFFF">Connector</tspan>
      </text>
    </g>
    <g>
      <g id="path17810">
        <path d="M130.85,58.881 L192.791,42.284" fill="#358EC4"/>
        <path d="M130.85,58.881 L192.791,42.284" fill-opacity="0" stroke="#358EC4" stroke-width="3.606" stroke-miterlimit="10"/>
      </g>
      <g id="path17832">
        <path d="M124.825,60.495 L135.009,50.3 L138.742,64.232 L124.825,60.495 z" fill="#358EC4"/>
        <path d="M124.825,60.495 L135.009,50.3 L138.742,64.232 L124.825,60.495 z" fill-opacity="0" stroke="#358EC4" stroke-width="0.4"/>
      </g>
    </g>
    <text transform="matrix(0.966, -0.259, 0.259, 0.966, 154.622, 40.533)" id="tspan17836">
      <tspan x="-22.996" y="5" font-family="GillSans" font-size="15" fill="#2A86C0">schema</tspan>
    </text>
    <g>
      <g id="path17810-9">
        <path d="M124.825,86.452 L186.766,69.855" fill="#6CB33F"/>
        <path d="M124.825,86.452 L186.766,69.855" fill-opacity="0" stroke="#6CB33F" stroke-width="3.606" stroke-linecap="square" stroke-miterlimit="10"/>
      </g>
      <g id="path17685">
        <path d="M192.791,68.24 L182.607,78.435 L178.874,64.504 L192.791,68.24 z" fill="#6CB33F"/>
        <path d="M192.791,68.24 L182.607,78.435 L178.874,64.504 L192.791,68.24 z" fill-opacity="0" stroke="#6CB33F" stroke-width="0.4" stroke-linecap="square" stroke-miterlimit="10"/>
      </g>
    </g>
    <text transform="matrix(0.966, -0.259, 0.259, 0.966, 154.622, 64.875)" id="tspan19197">
      <tspan x="-22.685" y="5" font-family="GillSans" font-size="15" fill="#6CB33F">queries</tspan>
    </text>
    <g>
      <g id="path17810-2">
        <path d="M130.85,108.418 L192.791,91.821" fill="#358EC4"/>
        <path d="M130.85,108.418 L192.791,91.821" fill-opacity="0" stroke="#358EC4" stroke-width="3.606" stroke-linecap="square" stroke-miterlimit="10"/>
      </g>
      <g id="path17832-7">
        <path d="M124.825,110.032 L135.009,99.838 L138.742,113.769 L124.825,110.032 z" fill="#358EC4"/>
        <path d="M124.825,110.032 L135.009,99.838 L138.742,113.769 L124.825,110.032 z" fill-opacity="0" stroke="#358EC4" stroke-width="0.4" stroke-linecap="square" stroke-miterlimit="10"/>
      </g>
    </g>
    <text transform="matrix(0.966, -0.259, 0.259, 0.966, 154.622, 89.174)" id="tspan17836-46">
      <tspan x="-30.8" y="5" font-family="GillSans" font-size="15" fill="#2A86C0">responses</tspan>
    </text>
    <g>
      <g id="path17810-9-1">
        <path d="M303.295,60.334 L365.236,76.931" fill="#6CB33F"/>
        <path d="M303.295,60.334 L365.236,76.931" fill-opacity="0" stroke="#6CB33F" stroke-width="3.606" stroke-linecap="square" stroke-miterlimit="10"/>
      </g>
      <g id="path17685-5">
        <path d="M371.261,78.546 L357.344,82.282 L361.077,68.351 L371.261,78.546 z" fill="#6CB33F"/>
        <path d="M371.261,78.546 L357.344,82.282 L361.077,68.351 L371.261,78.546 z" fill-opacity="0" stroke="#6CB33F" stroke-width="0.4" stroke-linecap="square" stroke-miterlimit="10"/>
      </g>
    </g>
    <text transform="matrix(0.966, 0.259, -0.259, 0.966, 341.859, 56.848)" id="tspan19197-8">
      <tspan x="-22.685" y="5" font-family="GillSans" font-size="15" fill="#6CB33F">queries</tspan>
    </text>
    <g>
      <g id="path17810-2-9">
        <path d="M307.32,92.246 L369.261,108.843" fill="#358EC4"/>
        <path d="M307.32,92.246 L369.261,108.843" fill-opacity="0" stroke="#358EC4" stroke-width="3.606" stroke-linecap="square" stroke-miterlimit="10"/>
      </g>
      <g id="path17832-7-3">
        <path d="M301.295,90.631 L315.212,86.895 L311.479,100.826 L301.295,90.631 z" fill="#358EC4"/>
        <path d="M301.295,90.631 L315.212,86.895 L311.479,100.826 L301.295,90.631 z" fill-opacity="0" stroke="#358EC4" stroke-width="0.4" stroke-linecap="square" stroke-miterlimit="10"/>
      </g>
    </g>
    <text transform="matrix(0.966, 0.259, -0.259, 0.966, 339.278, 87.174)" id="tspan17836-46-6">
      <tspan x="-30.8" y="5" font-family="GillSans" font-size="15" fill="#2A86C0">responses</tspan>
    </text>
    <g>
      <path d="M17.215,52.283 L100.199,52.283 C108.05,52.283 114.414,59.651 114.414,68.739 L114.414,120.762 C114.414,129.851 108.05,137.219 100.199,137.219 L17.215,137.219 C9.364,137.219 3,129.851 3,120.762 L3,68.739 C3,59.651 9.364,52.283 17.215,52.283 z" fill="#FFFFFF"/>
      <path d="M17.215,52.283 L100.199,52.283 C108.05,52.283 114.414,59.651 114.414,68.739 L114.414,120.762 C114.414,129.851 108.05,137.219 100.199,137.219 L17.215,137.219 C9.364,137.219 3,129.851 3,120.762 L3,68.739 C3,59.651 9.364,52.283 17.215,52.283 z" fill-opacity="0" stroke="#358EC4" stroke-width="2"/>
    </g>
    <text transform="matrix(1, 0, 0, 1, 58.707, 94.751)">
      <tspan x="-43.526" y="-14.86" font-family="GillSans" font-size="18" fill="#4B4B4B">Business </tspan>
      <tspan x="-43.526" y="6.14" font-family="GillSans" font-size="18" fill="#4B4B4B">Intelligence </tspan>
      <tspan x="-43.526" y="27.14" font-family="GillSans" font-size="18" fill="#4B4B4B">Tool</tspan>
    </text>
    <text transform="matrix(1, 0, 0, 1, 434.293, 94.751)">
      <tspan x="-43.526" y="-14.86" font-family="GillSans" font-size="18" fill="#4B4B4B">MongoDB</tspan>
    </text>
    <g>
      <path d="M428.202,48.471 C400.8,48.471 378.586,45.967 378.586,42.877 C378.586,39.788 400.8,37.284 428.202,37.284 C455.605,37.284 477.819,39.788 477.819,42.877 C477.819,45.967 455.605,48.471 428.202,48.471 z" fill="#FFFFFF"/>
      <path d="M428.202,48.471 C400.8,48.471 378.586,45.967 378.586,42.877 C378.586,39.788 400.8,37.284 428.202,37.284 C455.605,37.284 477.819,39.788 477.819,42.877 C477.819,45.967 455.605,48.471 428.202,48.471 z" fill-opacity="0" stroke="#6CB33E" stroke-width="2"/>
    </g>
    <g>
      <path d="M428.202,132.359 C400.8,132.359 378.586,129.855 378.586,126.766 C378.586,123.676 400.8,121.172 428.202,121.172 C455.605,121.172 477.819,123.676 477.819,126.766 C477.819,129.855 455.605,132.359 428.202,132.359 z" fill="#FFFFFF"/>
      <path d="M428.202,132.359 C400.8,132.359 378.586,129.855 378.586,126.766 C378.586,123.676 400.8,121.172 428.202,121.172 C455.605,121.172 477.819,123.676 477.819,126.766 C477.819,129.855 455.605,132.359 428.202,132.359 z" fill-opacity="0" stroke="#6CB33E" stroke-width="2"/>
    </g>
    <g>
      <path d="M584,62 L584,62" fill="#FFFFFF"/>
      <path d="M583.999,62.001 L583.999,62.001 L583.999,62.001 C584,62.001 584.001,62.001 584.001,62 C584.001,61.999 584.001,61.999 584.001,61.999 L584.001,61.999 C584.001,61.999 584.001,61.999 584.001,61.999 C584,61.999 583.999,61.999 583.999,62 C583.999,62.001 583.999,62.001 583.999,62.001 L583.999,62.001" fill="#6CB33E"/>
    </g>
    <path d="M428.202,128.172 C400.8,128.172 378.586,126.515 378.586,124.471 C378.586,122.426 400.8,120.769 428.202,120.769 C455.605,120.769 477.819,122.426 477.819,124.471 C477.819,126.515 455.605,128.172 428.202,128.172 z" fill="#FFFFFF"/>
    <path d="M231,68 L231,68" fill="url(#Gradient_1)"/>
  </g>
</svg>
